assets/payment/icon1.svg

<svg width="54" height="54" viewBox="0 0 54 54" fill="none" xmlns="http://www.w3.org/2000/svg">
<path d="M51.1994 33.9594V30.9002C51.1994 29.3553 49.9431 28.099 48.3983 28.099L43.3532 28.099C43.4405 27.1649 43.4405 26.2319 43.3532 25.2979H48.3983C49.9431 25.2979 51.1994 24.0417 51.1994 22.4968V19.4376C52.8261 18.8576 54.0005 17.3175 54.0005 15.494C54.0005 13.1771 52.1158 11.2924 49.7988 11.2924C47.4819 11.2924 45.5971 13.1771 45.5971 15.494C45.5971 17.3175 46.7715 18.8575 48.3983 19.4375V22.4968C48.3983 22.4968 45.2873 22.4968 45.2823 22.4968C46.0473 22.4937 45.9868 21.0069 45.7585 20.6128L41.8564 13.874C41.4693 13.2051 40.6138 12.9781 39.9457 13.3617L37.8366 14.5763C36.3267 13.2845 34.578 12.2799 32.6926 11.6206V9.19151C32.6926 8.52432 32.2162 7.99236 31.5916 7.85148V5.69012H34.6509C35.2309 7.31687 36.7709 8.49124 38.5944 8.49124C40.9113 8.49124 42.796 6.60651 42.796 4.28956C42.796 1.97262 40.9113 0.0878906 38.5944 0.0878906C36.7709 0.0878906 35.2308 1.26226 34.6508 2.88901H31.5916C30.0467 2.88901 28.7904 4.14526 28.7904 5.69012V7.79096H25.9893V5.69012C25.9893 4.14526 24.7331 2.88901 23.1882 2.88901H20.129C19.549 1.26226 18.0089 0.0878906 16.1854 0.0878906C13.8685 0.0878906 11.9838 1.97262 11.9838 4.28956C11.9838 6.60651 13.8685 8.49124 16.1854 8.49124C18.0089 8.49124 19.549 7.31687 20.129 5.69012H23.1882V7.85148C22.5636 7.99236 22.0872 8.52432 22.0872 9.19151V11.6206C20.2018 12.2799 18.4531 13.2845 16.9432 14.5763L14.8341 13.3617C14.1646 12.9781 13.3105 13.2051 12.9234 13.8739C12.9234 13.8739 9.02305 20.6096 9.02126 20.6128C8.6411 21.2692 8.85866 22.0985 9.49824 22.4968H6.38153V19.4376C8.00827 18.8576 9.18264 17.3175 9.18264 15.494C9.18264 13.1771 7.29791 11.2924 4.98097 11.2924C2.66403 11.2924 0.779297 13.1771 0.779297 15.494C0.779297 17.3175 1.95366 18.8575 3.58041 19.4375V22.4968C3.58041 24.0417 4.83667 25.2979 6.38153 25.2979H11.4266C11.3393 26.2323 11.3393 27.1645 11.4266 28.099H6.38153C4.83667 28.099 3.58041 29.3553 3.58041 30.9002V33.9594C1.95366 34.5394 0.779297 36.0795 0.779297 37.9029C0.779297 40.2199 2.66403 42.1046 4.98097 42.1046C7.29791 42.1046 9.18264 40.2199 9.18264 37.9029C9.18264 36.0795 8.00827 34.5394 6.38153 33.9594V30.9002H9.49756C8.73205 30.9028 8.79275 32.3896 9.02124 32.7842L12.9234 39.523C13.3104 40.1918 14.1646 40.4202 14.8341 40.0352L16.9431 38.8207C18.4531 40.1125 20.2018 41.1171 22.0872 41.7763V44.2055C22.0872 44.8726 22.5636 45.4046 23.1882 45.5455V47.7068H20.129C19.549 46.0801 18.0089 44.9057 16.1854 44.9057C13.8685 44.9057 11.9838 46.7905 11.9838 49.1074C11.9838 51.4243 13.8685 53.3091 16.1854 53.3091C18.0089 53.3091 19.549 52.1347 20.129 50.508H23.1882C24.7331 50.508 25.9893 49.2517 25.9893 47.7068V45.606H28.7904V47.7068C28.7904 49.2517 30.0467 50.508 31.5916 50.508H34.6508C35.2308 52.1347 36.7709 53.3091 38.5943 53.3091C40.9113 53.3091 42.796 51.4243 42.796 49.1074C42.796 46.7905 40.9113 44.9057 38.5943 44.9057C36.7709 44.9057 35.2308 46.0801 34.6508 47.7068H31.5916V45.5455C32.2162 45.4046 32.6926 44.8726 32.6926 44.2055V41.7764C34.578 41.1171 36.3267 40.1125 37.8366 38.8207L39.9457 40.0352C40.6138 40.4202 41.4693 40.1918 41.8564 39.523L45.7585 32.7842C46.1209 32.1584 45.9359 31.3076 45.2815 30.9002H48.3983V33.9594C46.7715 34.5394 45.5971 36.0795 45.5971 37.9029C45.5971 40.2199 47.4819 42.1046 49.7988 42.1046C52.1158 42.1046 54.0005 40.2199 54.0005 37.9029C54.0005 36.0795 52.8261 34.5394 51.1994 33.9594ZM27.3899 37.9029C21.2118 37.9029 16.1854 32.8765 16.1854 26.6985C16.1854 20.5204 21.2118 15.494 27.3899 15.494C33.5679 15.494 38.5943 20.5204 38.5943 26.6985C38.5943 32.8765 33.5679 37.9029 27.3899 37.9029Z" fill="#2D31FA"/>
</svg>

<svg xmlns="http://www.w3.org/2000/svg" width="54" height="54" fill="none" viewBox="0 0 54 54"><path fill="#2d31fa" d="M51.2 33.96V30.9a2.804 2.804 0 0 0-2.802-2.801h-5.045q.13-1.4 0-2.801h5.045a2.804 2.804 0 0 0 2.801-2.801v-3.06c1.627-.58 2.802-2.12 2.802-3.943a4.206 4.206 0 0 0-4.202-4.202 4.206 4.206 0 0 0-4.202 4.202c0 1.823 1.175 3.364 2.801 3.944v3.059h-3.116c.765-.003.705-1.49.477-1.884l-3.903-6.739a1.4 1.4 0 0 0-1.91-.512l-2.11 1.214a16.1 16.1 0 0 0-5.143-2.955V9.19c0-.667-.477-1.199-1.101-1.34V5.69h3.059c.58 1.626 2.12 2.8 3.943 2.8a4.206 4.206 0 0 0 4.202-4.201A4.206 4.206 0 0 0 38.594.088c-1.823 0-3.363 1.174-3.943 2.801h-3.06a2.804 2.804 0 0 0-2.8 2.801v2.101h-2.802v-2.1a2.804 2.804 0 0 0-2.8-2.802h-3.06c-.58-1.627-2.12-2.801-3.944-2.801a4.206 4.206 0 0 0-4.201 4.202 4.206 4.206 0 0 0 4.201 4.201c1.824 0 3.364-1.174 3.944-2.8h3.06v2.16c-.625.141-1.102.673-1.102 1.34v2.43a16.1 16.1 0 0 0-5.144 2.955l-2.109-1.214a1.4 1.4 0 0 0-1.91.512L9.02 20.613a1.394 1.394 0 0 0 .477 1.884H6.382v-3.06c1.626-.58 2.8-2.12 2.8-3.943a4.206 4.206 0 0 0-4.201-4.202 4.206 4.206 0 0 0-4.202 4.202c0 1.823 1.175 3.364 2.801 3.944v3.059a2.804 2.804 0 0 0 2.802 2.8h5.045a15 15 0 0 0 0 2.802H6.382A2.804 2.804 0 0 0 3.58 30.9v3.06c-1.626.58-2.8 2.12-2.8 3.943a4.206 4.206 0 0 0 4.201 4.202 4.206 4.206 0 0 0 4.202-4.202c0-1.823-1.175-3.364-2.801-3.944V30.9h3.116c-.766.003-.705 1.49-.477 1.884l3.902 6.739a1.4 1.4 0 0 0 1.911.512l2.11-1.214a16.1 16.1 0 0 0 5.143 2.955v2.43c0 .667.477 1.199 1.101 1.34v2.16H20.13c-.58-1.626-2.12-2.8-3.944-2.8a4.206 4.206 0 0 0-4.201 4.201 4.206 4.206 0 0 0 4.201 4.202c1.824 0 3.364-1.174 3.944-2.801h3.06a2.804 2.804 0 0 0 2.8-2.801v-2.101h2.801v2.1a2.804 2.804 0 0 0 2.802 2.802h3.059c.58 1.627 2.12 2.801 3.943 2.801a4.206 4.206 0 0 0 4.202-4.202 4.206 4.206 0 0 0-4.202-4.201c-1.823 0-3.363 1.174-3.943 2.8h-3.06v-2.16c.625-.141 1.102-.673 1.102-1.34v-2.43a16.1 16.1 0 0 0 5.144-2.955l2.109 1.214a1.4 1.4 0 0 0 1.91-.512l3.902-6.739a1.406 1.406 0 0 0-.477-1.884h3.117v3.06c-1.626.58-2.8 2.12-2.8 3.943a4.206 4.206 0 0 0 4.2 4.202 4.206 4.206 0 0 0 4.203-4.202c0-1.823-1.175-3.364-2.802-3.944m-23.81 3.943c-6.178 0-11.205-5.026-11.205-11.204s5.027-11.205 11.205-11.205 11.204 5.026 11.204 11.205c0 6.177-5.026 11.204-11.204 11.204"/></svg>
